dist/assets/svg/form/check_circle.svg

<svg xmlns="http://www.w3.org/2000/svg" width="15" height="15" fill="none" viewBox="0 0 15 15"><g clip-path="url(#a)"><path fill="#000" d="M10.943 4.185 6 9.128 3.308 6.442 2.25 7.5 6 11.25l6-6zM7.5 0C3.36 0 0 3.36 0 7.5S3.36 15 7.5 15 15 11.64 15 7.5 11.64 0 7.5 0m0 13.5c-3.315 0-6-2.685-6-6s2.685-6 6-6 6 2.685 6 6-2.685 6-6 6"/></g><defs><clipPath id="a"><path fill="#fff" d="M0 0h15v14.955H0z"/></clipPath></defs></svg>

<svg xmlns="http://www.w3.org/2000/svg" width="15" height="15" fill="none" viewBox="0 0 15 15"><g clip-path="url(#clip0_1_1653)"><path fill="#000" d="M10.9425 4.185L6 9.1275L3.3075 6.4425L2.25 7.5L6 11.25L12 5.25L10.9425 4.185ZM7.5 0C3.36 0 0 3.36 0 7.5C0 11.64 3.36 15 7.5 15C11.64 15 15 11.64 15 7.5C15 3.36 11.64 0 7.5 0ZM7.5 13.5C4.185 13.5 1.5 10.815 1.5 7.5C1.5 4.185 4.185 1.5 7.5 1.5C10.815 1.5 13.5 4.185 13.5 7.5C13.5 10.815 10.815 13.5 7.5 13.5Z"/></g><defs><clipPath id="clip0_1_1653"><path fill="#fff" d="M0 0H15V14.9549H0z"/></clipPath></defs></svg>
